X:0251
M:6/8
L:1/8
Q:3/8=86
K:G
  G2G GBd|c3  B2c|dBG    E2F|G3  G2:|
d|d2e B2c|d2g B2c|ded {d}c2B|A3  A2D|\
  G2G GBd|c3  B2c|dBG    E2F|G3  G2:|

